X:1
T:Title
L:1/8
Q:1/4=140
M:6/4
K:Bb
V:1 treble nm="Church Organ, Staff"
V:1
 G2 G2 A2 B2 A2 G2 | F2 G4- G3/2 z/ d4 | d2 c4- c3/2 z/ d4 | e2 d4- d3/2 z/ c4 | %4
w: By~From~"Piae~Cantiones" * * * * *||||
 d2 B4- B3/2 z/ z2 z2 | B2 d4 c2 d4 | G2 G4- G3/2 z/ A4 | c2 B4- B3/2 z/ A4 | F2 A4- A3/2 z/ B4 | %9
w: |||||
 c2 B4- B2 A4 | F2 G4- G2 G4 |] %11
w: ||

